img/companies/metaswitch.svg

<svg xmlns="http://www.w3.org/2000/svg" width="221" height="35" viewBox="0 0 221 35">
    <defs>
        <radialGradient id="a" cx="41.074%" cy="35.914%" r="65.435%" fx="41.074%" fy="35.914%">
            <stop stop-color="#FFFFFF" offset="0%"></stop>
            <stop stop-color="#F9E5B9" offset="0%"></stop>
            <stop stop-color="#F7DDA0" offset="8%"></stop>
            <stop stop-color="#F5D27F" offset="12%"></stop>
            <stop stop-color="#EDB860" offset="21%"></stop>
            <stop stop-color="#DD8927" offset="46%"></stop>
            <stop stop-color="#D67029" offset="61%"></stop>
            <stop stop-color="#D0612B" offset="82%"></stop>
            <stop stop-color="#C7462D" offset="95%"></stop>
        </radialGradient>
    </defs>
    <g fill="none">
        <path fill="#12385D" d="M23.9099376 10.3881596C21.438877 10.3881596 18.3873784 11.4295884 16.7711107 14.2757874 15.3750734 11.7263397 13.0925152 10.3881596 10.1175374 10.3881596 8.58525586 10.3881596 5.97795098 10.7614316 4.14518549 13.0010635L4.14518549 11.1216391.0223963196 11.1216391.0223963196 34.3615534 4.14705185 34.3615534 4.14705185 20.2649365C4.14705185 14.7797046 7.75472567 14.1843358 9.3056708 14.1843358 12.5587362 14.1843358 14.1395431 16.119751 14.1395431 20.1006969L14.1395431 34.359687 18.3183231 34.359687 18.3183231 20.4814343C18.3183231 15.8416634 21.0394759 14.1880685 23.5851909 14.1880685 26.6684176 14.1843358 28.3686715 16.3082534 28.3686715 20.1566877L28.3686715 34.3615534 32.5474515 34.3615534 32.5474515 20.0484388C32.5437188 13.9976998 29.3167824 10.3881596 23.9099376 10.3881596zM47.5473866 10.442284C40.9348732 10.442284 36.3174986 15.4385297 36.3174986 22.5922874 36.3174986 30.1193172 41.0356566 34.7964153 48.6354744 34.7964153 51.9650606 34.7964153 54.3465359 33.9976132 57.1330114 31.9464836L57.5062834 31.6777277 55.2890477 28.4582568 54.8971121 28.7718053C53.6037247 29.8076351 51.7243002 30.9965064 48.6448062 30.9965064 43.7138832 30.9965064 40.7071773 28.2212291 40.5205413 23.5459974L58.0363296 23.5459974 58.0867213 23.1372645C58.1461592 22.205031 58.1461592 21.2699581 58.0867213 20.3377246 57.670523 14.3280455 53.5440011 10.442284 47.5473866 10.442284zM40.7519699 20.0148443C41.5321084 16.3381152 44.1114179 14.0798196 47.601511 14.0798196 51.3939545 14.0798196 53.8258215 16.2877234 54.186029 20.0148443L40.7519699 20.0148443zM67.6779452 30.1361144C66.8343505 29.361575 66.4592121 27.8964825 66.4592121 25.4048919L66.4592121 14.5128151 73.0045365 14.5128151 73.0045365 10.8248878 66.4592121 10.8248878 66.4592121 1.34004646 62.2804322 2.31615272 62.2804322 10.8248878 58.9209842 10.8248878 57.9075507 14.5165478 62.2804322 14.5165478 62.2804322 25.3545002C62.2804322 31.7841103 64.5032669 34.5780511 69.7253421 34.6863 70.492416 34.6863 71.3621398 34.6863 72.2430617 34.6321756L72.5846055 34.6116456 73.5345828 30.8322667 72.8832231 30.8882575C70.4737524 31.0954234 68.6708487 31.0468981 67.6779452 30.1361144zM85.3019824 10.442284C78.1650218 10.442284 73.3684767 15.347078 73.3684767 22.6464119 73.3684767 26.1215741 74.318454 29.0909528 76.1138922 31.2316677 78.036243 33.5254241 80.8395157 34.7385581 84.2194936 34.7385581 86.7820058 34.7385581 90.1675828 33.6187421 92.190717 30.5821744L92.190717 34.359687 96.3153725 34.359687 96.3153725 14.4120317 96.1287365 14.2720547C94.6692431 13.1261097 91.2332743 10.442284 85.3019824 10.442284zM92.1981825 16.326917L92.1981825 20.8603054C92.1981825 24.2197533 91.2967306 26.9334407 89.5852785 28.6990172 88.2695745 30.0778391 86.4518696 30.8655112 84.5461066 30.8826584 82.2840783 30.8826584 80.5259672 30.1155845 79.3202987 28.6038329 78.2004827 27.1947311 77.6032475 25.1697305 77.6032475 22.7490617 77.6032475 17.6109727 80.6678106 14.2907183 85.4120976 14.2907183 88.7976746 14.2963174 90.9477213 15.3694743 92.1981825 16.326917zM109.881943 20.5168951C106.625145 19.5687843 104.646803 18.8502357 104.646803 16.8569632 104.646803 14.8636908 106.987219 14.1843358 108.995422 14.1843358 111.218991 14.210511 113.384696 14.8964692 115.217866 16.1552119L115.824433 16.580742 116.481392 12.6408561 116.244364 12.4710173C114.781138 11.4370539 111.981598 10.3881596 108.995422 10.3881596 106.727795 10.3881596 104.659868 10.9350031 103.172379 11.9260402 101.48653 12.992261 100.481243 14.8626609 100.522148 16.8569632 100.522148 21.5769876 104.532955 22.7434626 108.069708 23.7624951 110.9551 24.6004907 113.448557 25.3246384 113.448557 27.7191783 113.448557 30.6661606 110.029386 30.9853082 108.56056 30.9853082 106.190487 30.934753 103.882853 30.2160032 101.903254 28.9117823L101.584107 28.6971509 101.311618 28.9696394C101.229498 29.0517593 101.046595 29.3037179 100.356042 30.2648933 100.070489 30.6624279 99.7681385 31.0842253 99.5348435 31.4033728L99.2436913 31.7990411 99.6542905 32.0696633C102.323854 33.8519392 105.462705 34.8009999 108.672542 34.7964153 114.18017 34.7964153 117.739319 31.9968753 117.739319 27.6781183 117.735586 22.8050525 113.381368 21.537794 109.881943 20.5168951z"></path>
        <polygon fill="#12385D" points="139.294 25.674 134.762 10.364 132.711 10.364 128.139 25.681 123.062 10.635 118.809 10.635 127.5 34.819 128.868 34.819 133.753 19.606 138.559 34.819 139.928 34.819 148.665 10.635 144.367 10.635"></polygon>
        <rect width="4.179" height="23.542" x="151.621" y="10.821" fill="#12385D"></rect>
        <path fill="#12385D" d="M168.323273 30.1361144C167.479678 29.361575 167.10454 27.8964825 167.10454 25.4048919L167.10454 14.5128151 173.649864 14.5128151 173.649864 10.8248878 167.102673 10.8248878 167.102673 1.34004646 162.933225 2.31615272 162.933225 10.8248878 159.573777 10.8248878 158.560344 14.5165478 162.933225 14.5165478 162.933225 25.3545002C162.933225 31.7841103 165.15606 34.5780511 170.376269 34.6863 171.143343 34.6863 172.013067 34.6863 172.893988 34.6321756L173.235532 34.6116456 174.17991 30.834133 173.528551 30.8901238C171.117214 31.0954234 169.31431 31.0468981 168.323273 30.1361144zM193.511667 28.6934182C191.904731 29.7647088 189.70056 30.99464 186.90102 30.99464 181.927171 30.99464 178.713299 27.6743856 178.713299 22.5362966 178.713299 19.9607199 179.521433 17.8256041 181.049981 16.3623778 182.50201 14.973806 184.525144 14.2403266 186.90102 14.2403266 189.848002 14.2403266 192.126828 15.6363638 193.214916 16.3082534L193.534063 16.4948894 194.093971 16.819636 194.950631 12.9600036 194.685607 12.7733676C192.387141 11.2224074 189.681238 10.3860255 186.908485 10.369496 183.362401 10.369496 180.314636 11.4743811 178.108598 13.5665706 175.811109 15.7651427 174.59051 18.8800974 174.59051 22.5829556 174.59051 29.8822895 179.53823 34.7870835 186.908485 34.7870835 190.012242 34.7870835 192.759524 33.9192261 195.551598 32.0584652L195.92487 31.813972 193.939063 28.4097314 193.511667 28.6934182zM211.025589 10.442284C208.453745 10.442284 205.064435 11.468782 203.054366 14.2403266L203.054366 1.34004646 198.875586 2.31428636 198.875586 34.359687 203.059965 34.359687 203.059965 22.6986699C203.059965 19.9401899 203.920357 17.6706962 205.549689 16.1346819 206.855735 14.8992018 208.580232 14.2026036 210.377962 14.1843358 214.426097 14.1843358 216.077825 16.493023 216.077825 22.1555592L216.077825 34.359687 220.31073 34.359687 220.31073 22.1051675C220.308863 14.2571238 217.272296 10.442284 211.025589 10.442284z"></path>
        <circle cx="153.613" cy="4.331" r="4.015" fill="url(#a)" transform="rotate(-3.21 153.613 4.331)"></circle>
    </g>
</svg>

<svg xmlns="http://www.w3.org/2000/svg" width="221" height="35" viewBox="0 0 221 35"><defs><radialGradient id="a" cx="41.074%" cy="35.914%" r="65.435%" fx="41.074%" fy="35.914%"><stop stop-color="#FFF" offset="0%"/><stop stop-color="#F9E5B9" offset="0%"/><stop stop-color="#F7DDA0" offset="8%"/><stop stop-color="#F5D27F" offset="12%"/><stop stop-color="#EDB860" offset="21%"/><stop stop-color="#DD8927" offset="46%"/><stop stop-color="#D67029" offset="61%"/><stop stop-color="#D0612B" offset="82%"/><stop stop-color="#C7462D" offset="95%"/></radialGradient></defs><g fill="none"><path fill="#12385D" d="M23.91 10.388c-2.471 0-5.523 1.042-7.139 3.888-1.396-2.55-3.678-3.888-6.653-3.888-1.533 0-4.14.373-5.973 2.613v-1.88H.022v23.24h4.125V20.266c0-5.485 3.608-6.08 5.159-6.08 3.253 0 4.834 1.935 4.834 5.916V34.36h4.178V20.48c0-4.64 2.721-6.293 5.267-6.293 3.083-.004 4.784 2.12 4.784 5.969v14.205h4.178V20.048c-.003-6.05-3.23-9.66-8.637-9.66zm23.637.054c-6.612 0-11.23 4.997-11.23 12.15 0 7.527 4.719 12.204 12.318 12.204 3.33 0 5.712-.798 8.498-2.85l.373-.268-2.217-3.22-.392.314c-1.293 1.036-3.173 2.225-6.252 2.225-4.931 0-7.938-2.776-8.124-7.451h17.515l.05-.409a21.8 21.8 0 000-2.8c-.415-6.009-4.542-9.895-10.539-9.895zm-6.795 9.573c.78-3.677 3.36-5.935 6.85-5.935 3.792 0 6.224 2.208 6.584 5.935H40.752zm26.926 10.121c-.844-.774-1.219-2.24-1.219-4.731V14.513h6.546v-3.688h-6.546V1.34l-4.179.976v8.509h-3.359l-1.013 3.692h4.372v10.838c0 6.43 2.223 9.223 7.445 9.331.767 0 1.637 0 2.518-.054l.342-.02.95-3.78-.652.056c-2.41.207-4.212.159-5.205-.752zm17.624-19.694c-7.137 0-11.934 4.905-11.934 12.204 0 3.476.95 6.445 2.746 8.586 1.922 2.293 4.726 3.507 8.105 3.507 2.563 0 5.949-1.12 7.972-4.157v3.778h4.124V14.412l-.186-.14c-1.46-1.146-4.896-3.83-10.827-3.83zm6.896 5.885v4.533c0 3.36-.901 6.073-2.613 7.839a7.053 7.053 0 01-5.039 2.184c-2.262 0-4.02-.767-5.226-2.28-1.12-1.408-1.717-3.433-1.717-5.854 0-5.138 3.065-8.458 7.81-8.458 3.385.005 5.535 1.078 6.785 2.036zm17.684 4.19c-3.257-.948-5.235-1.667-5.235-3.66s2.34-2.673 4.348-2.673c2.224.027 4.39.712 6.223 1.971l.606.426.657-3.94-.237-.17c-1.463-1.034-4.262-2.083-7.249-2.083-2.267 0-4.335.547-5.823 1.538a5.696 5.696 0 00-2.65 4.931c0 4.72 4.011 5.886 7.548 6.905 2.885.838 5.379 1.563 5.379 3.957 0 2.947-3.42 3.266-4.888 3.266a12.589 12.589 0 01-6.658-2.073l-.319-.215-.272.273c-.083.082-.265.334-.956 1.295-.286.397-.588.82-.821 1.138l-.291.396.41.27a16.2 16.2 0 009.019 2.727c5.507 0 9.066-2.8 9.066-7.118-.003-4.873-4.358-6.14-7.857-7.161zm29.412 5.157l-4.532-15.31h-2.051l-4.572 15.317-5.077-15.046h-4.253l8.691 24.184h1.368l4.885-15.213 4.806 15.213h1.369l8.737-24.184h-4.298zm12.327-14.853h4.179v23.542h-4.179zm16.702 19.315c-.843-.774-1.218-2.24-1.218-4.731V14.513h6.545v-3.688h-6.547V1.34l-4.17.976v8.509h-3.36l-1.013 3.692h4.373v10.838c0 6.43 2.223 9.223 7.443 9.331.767 0 1.637 0 2.518-.054l.342-.02.944-3.778-.651.056c-2.412.205-4.215.157-5.206-.754zm25.189-1.443c-1.607 1.072-3.811 2.302-6.611 2.302-4.974 0-8.188-3.32-8.188-8.459 0-2.575.808-4.71 2.337-6.174 1.452-1.388 3.475-2.122 5.851-2.122 2.947 0 5.226 1.396 6.314 2.068l.32.187.559.325.857-3.86-.265-.187a14.054 14.054 0 00-7.778-2.404c-3.546 0-6.593 1.105-8.8 3.198-2.297 2.198-3.517 5.313-3.517 9.016 0 7.3 4.947 12.204 12.317 12.204 3.104 0 5.852-.868 8.644-2.729l.373-.244-1.986-3.404-.427.283zm17.514-18.25c-2.572 0-5.962 1.026-7.972 3.797V1.34l-4.178.974V34.36h4.184V22.699c0-2.759.86-5.028 2.49-6.564a7.131 7.131 0 014.828-1.95c4.048 0 5.7 2.308 5.7 7.97V34.36h4.233V22.105c-.002-7.848-3.039-11.663-9.285-11.663z"/><circle cx="153.613" cy="4.331" r="4.015" fill="url(#a)" transform="rotate(-3.21 153.613 4.331)"/></g></svg>
